X: 281
T:Waltz Quadrille
M:3/4
R:waltz
L:1/8
Z:Alf Warnock - alf0@rogers.com
K:F
F3/2G/2|"F"A2 G2 A2|"Gm"B2 A2 B2|"Am"c2 f2 A2|"F"c4 cd|"C7"c2 G2 A2|
B4 de|"Bb"d2 c2 B2|"F"A4 FG|"F"A2 G2 A2|"Gm"B2 A2 B2|
"F"c2 f2 A2|c4 cd|"C7"c2 e3f|e2 d2 c2|c2 d2 e2|"F"f4 c2||
|"F"a6|"A7"g6|"Bb"f2 e2 d2|"F"c3=B cd|"C7"c2 G2 A2|B3A Bc|
"Bb"d2 c2 B2|"F"A4 c2|"F"a6|"A7"g6|"Bb"f2 e2 d2|
"F"c4 cd|"C7"c2 e3f|e2 d2 c2|c2 d2 e2|"F"f6|]
%%text Harmony for 2nd part
"F"c6| "A7"^c6| "Bb"d2 c2 B2| "F"A3^G AB|"C7"A2 E2 F2| G3^F GA|
"Bb"B2 A2 G2| "F"F4 A2|"F"c6| "A7"^c6| "Bb"d2 c2 B2|
"F"A4 AB|"C7"B2 c3d|c2 B2 A2| B2 =B2 _B2| "F"A6|
